X:1
T: The Falls of Corrymulzie
C:Alexander Walker
R:Reel
Q: 232
K:A
M:4/4
L:1/8
|:e|cA A1/2A1/2A A2 EC|DF CE FB, B,B|cA A1/2A1/2A a2 ed|cA BG AA, A,e|
cA A1/2A1/2A A2 EC|DF CE FB, B,B|cA A1/2A1/2A a2 ed|cA BG AA, A,e|
cA ce cA a2|dB b2 ge fa|cA BG FA EC|DF EG A2 Ac|
cA ce cA a2|dB b2 ge fa|ag fe fe dc|BE FG A2 -A:|
